src/assets/images/analysis_execute_images/ExecuteImg2.svg

<svg width="237" height="178" viewBox="0 0 237 178" fill="none" xmlns="http://www.w3.org/2000/svg">
<g clip-path="url(#clip0_1506_37548)">
<path d="M187.218 114.217C159.304 114.217 137.438 109.167 137.438 102.721C137.438 98.8561 145.185 95.4078 158.695 93.2605C158.743 93.2525 158.792 93.2542 158.84 93.2654C158.888 93.2766 158.933 93.2971 158.972 93.3256C159.012 93.3542 159.046 93.3904 159.071 93.432C159.097 93.4736 159.114 93.5198 159.122 93.5681C159.129 93.6163 159.128 93.6656 159.116 93.7131C159.105 93.7606 159.084 93.8054 159.055 93.8449C159.026 93.8843 158.99 93.9177 158.948 93.9431C158.906 93.9685 158.86 93.9854 158.811 93.9929C146.086 96.0158 138.18 99.3602 138.18 102.721C138.18 108.55 160.637 113.475 187.218 113.475C213.8 113.475 236.256 108.55 236.256 102.721C236.256 99.3461 228.3 95.9935 215.493 93.9719C215.396 93.9563 215.309 93.9029 215.251 93.8234C215.194 93.7439 215.17 93.6448 215.185 93.5478C215.201 93.4508 215.254 93.3639 215.333 93.306C215.413 93.2482 215.512 93.2242 215.609 93.2393C229.203 95.3851 236.999 98.8411 236.999 102.721C236.999 109.167 215.133 114.217 187.218 114.217Z" fill="#CCCCCC"/>
<path d="M162.523 116.382C165.049 120.699 168.666 124.278 173.013 126.762C177.36 129.245 182.283 130.546 187.292 130.533C192.3 130.521 197.217 129.195 201.552 126.69C205.886 124.185 209.485 120.587 211.988 116.257C195.515 117.204 179.002 117.245 162.523 116.382Z" fill="#E6E6E6"/>
<path d="M214.725 108.329C215.943 104.067 216.15 99.5816 215.33 95.2265C214.51 90.8714 212.687 86.7665 210.003 83.2367C207.319 79.7068 203.849 76.849 199.868 74.8892C195.886 72.9295 191.502 71.9218 187.063 71.9457C182.624 71.9697 178.251 73.0247 174.291 75.0272C170.331 77.0298 166.892 79.9249 164.247 83.4835C161.601 87.0421 159.822 91.1664 159.05 95.5301C158.277 99.8939 158.533 104.377 159.796 108.625C178.042 110.898 196.505 110.798 214.725 108.329Z" fill="#E6E6E6"/>
<path d="M44.3784 3.33762C44.3782 2.73422 44.2142 2.14216 43.9038 1.62442C43.5933 1.10668 43.1481 0.682638 42.6154 0.397408C42.0827 0.112179 41.4825 -0.0235639 40.8787 0.00462004C40.2749 0.032804 39.69 0.223861 39.1864 0.557464C38.6827 0.891067 38.279 1.35473 38.0183 1.89913C37.7576 2.44353 37.6497 3.04829 37.7059 3.64906C37.7622 4.24984 37.9805 4.82415 38.3378 5.3109C38.695 5.79765 39.1778 6.17861 39.7347 6.41327V23.7335H42.3351V6.41327C42.9409 6.1579 43.4578 5.72994 43.8212 5.1829C44.1846 4.63586 44.3784 3.99401 44.3784 3.33762Z" fill="#CCCCCC"/>
<path d="M63.138 86.4043H63.1369C62.1374 86.4032 61.1483 86.201 60.2288 85.8098C59.3093 85.4187 58.4782 84.8465 57.7852 84.1275C57.0922 83.4086 56.5514 82.5575 56.1952 81.6253C55.8391 80.6931 55.6748 79.6987 55.7122 78.7017C55.8612 74.7697 59.2716 71.5709 63.3147 71.5709H83.7266L100.523 64.1487C100.973 63.9503 101.484 63.9383 101.944 64.1154C102.403 64.2925 102.773 64.6441 102.973 65.0933L107.485 75.2662C107.684 75.7159 107.696 76.226 107.518 76.6845C107.341 77.143 106.988 77.5126 106.538 77.7121L89.995 85.0227C88.3564 85.7493 86.5863 86.1337 84.7934 86.1524L63.138 86.4043Z" fill="#CCCCCC"/>
<path d="M13.6607 125.469C13.5638 125.469 13.4672 125.461 13.3718 125.444L2.38654 123.573H2.38663C2.16681 123.535 1.95671 123.454 1.76871 123.335C1.5807 123.215 1.4186 123.059 1.29193 122.876C1.16526 122.693 1.0766 122.486 1.03116 122.268C0.985723 122.05 0.984429 121.825 1.02735 121.607L9.62588 77.8297C9.94965 75.9393 11.0125 74.2548 12.5805 73.1466C14.1486 72.0384 16.0934 71.5974 17.9872 71.9206C19.881 72.2438 21.5686 73.3047 22.6788 74.87C23.789 76.4352 24.2308 78.3766 23.907 80.267L15.2936 124.12C15.2214 124.5 15.0188 124.842 14.7206 125.088C14.4225 125.335 14.0476 125.469 13.6607 125.469Z" fill="#CCCCCC"/>
<path d="M7.78463 134.983C11.4777 134.983 14.4716 131.995 14.4716 128.308C14.4716 124.622 11.4777 121.633 7.78463 121.633C4.09152 121.633 1.09766 124.622 1.09766 128.308C1.09766 131.995 4.09152 134.983 7.78463 134.983Z" fill="#E6E6E6"/>
<path d="M40.2263 71.0803C53.9729 71.0803 65.1168 59.9565 65.1168 46.2345C65.1168 32.5125 53.9729 21.3887 40.2263 21.3887C26.4798 21.3887 15.3359 32.5125 15.3359 46.2345C15.3359 59.9565 26.4798 71.0803 40.2263 71.0803Z" fill="#E6E6E6"/>
<path d="M40.2263 71.0803C53.9729 71.0803 65.1168 59.9565 65.1168 46.2345C65.1168 32.5125 53.9729 21.3887 40.2263 21.3887C26.4798 21.3887 15.3359 32.5125 15.3359 46.2345C15.3359 59.9565 26.4798 71.0803 40.2263 71.0803Z" fill="#E6E6E6"/>
<path d="M40.2238 65.147C50.6876 65.147 59.1702 56.6796 59.1702 46.2345C59.1702 35.7894 50.6876 27.322 40.2238 27.322C29.7599 27.322 21.2773 35.7894 21.2773 46.2345C21.2773 56.6796 29.7599 65.147 40.2238 65.147Z" fill="#6C63FF"/>
<path d="M42.4402 54.1736C41.2121 54.1396 39.6836 54.097 38.506 53.2384C38.1554 52.9722 37.8673 52.6328 37.6619 52.2437C37.4566 51.8547 37.3389 51.4256 37.3172 50.9864C37.2959 50.6743 37.3472 50.3615 37.4671 50.0724C37.587 49.7834 37.7722 49.5259 38.0083 49.3202C38.6233 48.8014 39.5214 48.6798 40.4893 48.9637L39.4865 41.6488L40.2226 41.5481L41.4015 50.1477L40.7868 49.8662C40.0741 49.5399 39.0959 49.3738 38.488 49.8866C38.3387 50.0207 38.2224 50.1873 38.1481 50.3735C38.0738 50.5598 38.0436 50.7606 38.0597 50.9604C38.0777 51.2872 38.1661 51.6064 38.3187 51.8961C38.4714 52.1859 38.6848 52.4394 38.9443 52.6394C39.8607 53.3076 41.0791 53.3938 42.4609 53.4323L42.4402 54.1736Z" fill="#2F2E41"/>
<path d="M35.8454 42.2795H31.8438V43.0212H35.8454V42.2795Z" fill="#2F2E41"/>
<path d="M48.4782 42.2795H44.4766V43.0212H48.4782V42.2795Z" fill="#2F2E41"/>
<path opacity="0.2" d="M27.475 46.3542C27.4753 41.835 29.0964 37.4653 32.0448 34.0359C34.9932 30.6065 39.0742 28.344 43.549 27.658C40.8452 27.2021 38.0745 27.3374 35.4283 28.0548C32.7821 28.7722 30.3234 30.0545 28.2221 31.813C26.1209 33.5716 24.4271 35.7646 23.2579 38.2404C22.0886 40.7163 21.4717 43.416 21.4498 46.1531C21.4279 48.8901 22.0016 51.5993 23.1311 54.0935C24.2606 56.5877 25.9191 58.8073 27.992 60.5992C30.0648 62.391 32.5027 63.7123 35.1371 64.4717C37.7715 65.2312 40.5397 65.4107 43.2504 64.9979C38.8389 64.25 34.8349 61.9678 31.9475 58.5555C29.0602 55.1431 27.4758 50.8209 27.475 46.3542Z" fill="black"/>
<path d="M59.171 125.527H21.2782C19.653 125.525 18.095 124.88 16.9458 123.733C15.7967 122.586 15.1503 121.031 15.1484 119.408V76.7626C15.1503 75.1403 15.7967 73.5851 16.9458 72.438C18.095 71.2909 19.653 70.6456 21.2782 70.6438H27.0364V72.3125C27.0377 73.4432 27.4882 74.5272 28.2891 75.3267C29.09 76.1262 30.1759 76.5759 31.3086 76.5771H49.1406C50.2732 76.5759 51.3592 76.1262 52.1601 75.3267C52.961 74.5272 53.4115 73.4432 53.4128 72.3125V70.6438H59.171C60.7962 70.6456 62.3542 71.2909 63.5034 72.438C64.6525 73.5851 65.2989 75.1403 65.3007 76.7626V119.408C65.2989 121.031 64.6525 122.586 63.5034 123.733C62.3542 124.88 60.7962 125.525 59.171 125.527Z" fill="#E6E6E6"/>
<path d="M64.2549 166.504H49.3916V149.376L29.9805 119.666L42.4273 111.563L61.7536 141.143C63.1375 143.26 63.8945 145.723 63.9376 148.25L64.2549 166.504Z" fill="#E6E6E6"/>
<path d="M38.0627 177.815H23.5742V134.427H38.0627V177.815Z" fill="#E6E6E6"/>
<path d="M56.2004 138.506H24.2515C23.4143 138.505 22.6117 138.173 22.0197 137.582C21.4277 136.991 21.0947 136.19 21.0938 135.354V123.488C21.0947 122.652 21.4277 121.851 22.0197 121.26C22.6117 120.669 23.4143 120.336 24.2515 120.335H56.2004C57.0376 120.336 57.8402 120.669 58.4322 121.26C59.0242 121.851 59.3572 122.652 59.3581 123.488V135.354C59.3572 136.19 59.0242 136.991 58.4322 137.582C57.8402 138.173 57.0376 138.505 56.2004 138.506Z" fill="#E6E6E6"/>
<path d="M66.8528 173.364H49.5781V161.869H66.8528C68.38 161.869 69.8446 162.474 70.9245 163.552C72.0044 164.63 72.611 166.092 72.611 167.617C72.611 169.141 72.0044 170.603 70.9245 171.681C69.8446 172.759 68.38 173.364 66.8528 173.364Z" fill="#CCCCCC"/>
<path d="M40.8489 177.815H23.5742V166.319H40.8489C42.3761 166.319 43.8407 166.924 44.9206 168.002C46.0005 169.08 46.6071 170.542 46.6071 172.067C46.6071 173.591 46.0005 175.053 44.9206 176.131C43.8407 177.209 42.3761 177.815 40.8489 177.815Z" fill="#CCCCCC"/>
<path d="M58.3074 89.5563H44.562C44.2171 89.5563 43.8864 89.4195 43.6425 89.1761C43.3987 88.9327 43.2617 88.6026 43.2617 88.2584C43.2617 87.9141 43.3987 87.584 43.6425 87.3406C43.8864 87.0972 44.2171 86.9604 44.562 86.9604H58.3074C58.6523 86.9604 58.983 87.0972 59.2268 87.3406C59.4707 87.584 59.6077 87.9141 59.6077 88.2584C59.6077 88.6026 59.4707 88.9327 59.2268 89.1761C58.983 89.4195 58.6523 89.5563 58.3074 89.5563Z" fill="white"/>
<path d="M58.3074 94.1918H44.562C44.2171 94.1918 43.8864 94.055 43.6425 93.8116C43.3987 93.5682 43.2617 93.2381 43.2617 92.8939C43.2617 92.5496 43.3987 92.2195 43.6425 91.9761C43.8864 91.7327 44.2171 91.5959 44.562 91.5959H58.3074C58.6523 91.5959 58.983 91.7327 59.2268 91.9761C59.4707 92.2195 59.6077 92.5496 59.6077 92.8939C59.6077 93.2381 59.4707 93.5682 59.2268 93.8116C58.983 94.055 58.6523 94.1918 58.3074 94.1918Z" fill="white"/>
<path d="M81.7297 178H0.371499C0.272971 178 0.178484 177.961 0.108815 177.891C0.0391453 177.822 0 177.727 0 177.629C0 177.531 0.0391453 177.436 0.108815 177.367C0.178484 177.297 0.272971 177.258 0.371499 177.258H81.7297C81.8282 177.258 81.9227 177.297 81.9924 177.367C82.062 177.436 82.1012 177.531 82.1012 177.629C82.1012 177.727 82.062 177.822 81.9924 177.891C81.9227 177.961 81.8282 178 81.7297 178Z" fill="#3F3D56"/>
<path d="M108.46 74.9083C112.154 74.9083 115.147 71.9198 115.147 68.2333C115.147 64.5468 112.154 61.5583 108.46 61.5583C104.767 61.5583 101.773 64.5468 101.773 68.2333C101.773 71.9198 104.767 74.9083 108.46 74.9083Z" fill="#E6E6E6"/>
<path d="M110.506 95.1189C109.915 95.1182 109.349 94.8836 108.931 94.4664C108.513 94.0493 108.278 93.4837 108.277 92.8939V12.7938C108.277 12.2037 108.512 11.6378 108.93 11.2205C109.348 10.8033 109.915 10.5688 110.506 10.5688C111.097 10.5688 111.664 10.8033 112.082 11.2205C112.5 11.6378 112.735 12.2037 112.735 12.7938V92.8939C112.735 93.4837 112.5 94.0493 112.082 94.4664C111.664 94.8836 111.097 95.1182 110.506 95.1189Z" fill="#3F3D56"/>
<path d="M178.178 11.2512C176.221 9.54159 169.496 4.22015 160.822 3.24857C154.332 2.52545 146.75 4.23499 139.256 11.7184C133.246 17.7185 127.577 20.5628 122.405 20.1771C117.126 19.7803 113.616 16.0349 111.992 13.8359C111.878 13.6787 111.717 13.5621 111.531 13.5034C111.346 13.4446 111.147 13.4468 110.963 13.5095C110.775 13.5684 110.611 13.6859 110.496 13.8449C110.38 14.0038 110.318 14.1956 110.32 14.3921V42.0785C110.321 42.254 110.371 42.4258 110.465 42.5741C110.559 42.7224 110.693 42.8411 110.852 42.9166C112.876 43.8734 120.169 47.0514 127.51 47.0514C131.815 47.0514 136.143 45.9574 139.427 42.6756C139.461 42.6422 139.49 42.6125 139.524 42.5829C145.342 36.9314 158.166 38.0921 167.524 39.9388C171.395 40.7027 174.671 41.5816 176.614 42.1453C176.863 42.217 177.125 42.23 177.38 42.1832C177.634 42.1365 177.874 42.0312 178.081 41.8758C178.288 41.7204 178.456 41.5191 178.571 41.2879C178.687 41.0566 178.747 40.8017 178.747 40.5433V12.5083C178.747 12.2705 178.696 12.0353 178.598 11.8186C178.5 11.6018 178.357 11.4084 178.178 11.2512Z" fill="#6C63FF"/>
<path d="M193.164 90.1125C195.01 90.1125 196.507 88.6182 196.507 86.775C196.507 84.9317 195.01 83.4375 193.164 83.4375C191.317 83.4375 189.82 84.9317 189.82 86.775C189.82 88.6182 191.317 90.1125 193.164 90.1125Z" fill="white"/>
<path d="M187.218 126.825C189.065 126.825 190.562 125.331 190.562 123.487C190.562 121.644 189.065 120.15 187.218 120.15C185.372 120.15 183.875 121.644 183.875 123.487C183.875 125.331 185.372 126.825 187.218 126.825Z" fill="white"/>
<path d="M176.447 103.833C179.525 103.833 182.02 101.343 182.02 98.2707C182.02 95.1987 179.525 92.7083 176.447 92.7083C173.37 92.7083 170.875 95.1987 170.875 98.2707C170.875 101.343 173.37 103.833 176.447 103.833Z" fill="white"/>
</g>
<defs>
<clipPath id="clip0_1506_37548">
<rect width="237" height="178" fill="white"/>
</clipPath>
</defs>
</svg>

<svg width="237" height="178" fill="none" xmlns="http://www.w3.org/2000/svg"><g clip-path="url(#a)"><path d="M187.218 114.217c-27.914 0-49.78-5.05-49.78-11.496 0-3.865 7.747-7.313 21.257-9.46a.37.37 0 0 1 .427.307.373.373 0 0 1-.311.425c-12.725 2.023-20.631 5.367-20.631 8.728 0 5.829 22.457 10.754 49.038 10.754 26.582 0 49.038-4.925 49.038-10.754 0-3.375-7.956-6.728-20.763-8.75a.373.373 0 0 1-.308-.423.373.373 0 0 1 .424-.308c13.594 2.145 21.39 5.601 21.39 9.481 0 6.446-21.866 11.496-49.781 11.496Z" fill="#CCC"/><path d="M162.523 116.382a28.58 28.58 0 0 0 10.49 10.38 28.639 28.639 0 0 0 28.539-.072 28.562 28.562 0 0 0 10.436-10.433 450.945 450.945 0 0 1-49.465.125Zm52.202-8.053a28.492 28.492 0 0 0 .605-13.102 28.529 28.529 0 0 0-5.327-11.99 28.6 28.6 0 0 0-10.135-8.348 28.651 28.651 0 0 0-25.577.138 28.589 28.589 0 0 0-10.044 8.457 28.513 28.513 0 0 0-4.451 25.141 212.982 212.982 0 0 0 54.929-.296Z" fill="#E6E6E6"/><path d="M44.378 3.338a3.334 3.334 0 0 0-1.763-2.94 3.349 3.349 0 0 0-4.597 1.501 3.333 3.333 0 0 0 1.717 4.514v17.32h2.6V6.413a3.343 3.343 0 0 0 2.043-3.075Zm18.76 83.066h-.001a7.45 7.45 0 0 1-5.352-2.276 7.424 7.424 0 0 1-2.073-5.426c.15-3.932 3.56-7.131 7.603-7.131h20.412l16.796-7.422a1.863 1.863 0 0 1 2.45.944l4.512 10.173a1.857 1.857 0 0 1-.947 2.446l-16.543 7.31a13.171 13.171 0 0 1-5.202 1.13l-21.655.252ZM13.66 125.469a1.64 1.64 0 0 1-.288-.025l-10.985-1.871a1.677 1.677 0 0 1-1.355-1.305 1.665 1.665 0 0 1-.005-.661L9.626 77.83a7.23 7.23 0 0 1 2.955-4.683 7.254 7.254 0 0 1 10.098 1.723 7.22 7.22 0 0 1 1.228 5.397l-8.613 43.853a1.66 1.66 0 0 1-1.633 1.349Z" fill="#CCC"/><path d="M7.785 134.983c3.693 0 6.687-2.988 6.687-6.675 0-3.686-2.994-6.675-6.687-6.675s-6.687 2.989-6.687 6.675c0 3.687 2.994 6.675 6.687 6.675ZM40.226 71.08c13.747 0 24.89-11.123 24.89-24.846 0-13.721-11.143-24.845-24.89-24.845-13.746 0-24.89 11.124-24.89 24.845 0 13.722 11.144 24.846 24.89 24.846Z" fill="#E6E6E6"/><path d="M40.226 71.08c13.747 0 24.89-11.123 24.89-24.846 0-13.721-11.143-24.845-24.89-24.845-13.746 0-24.89 11.124-24.89 24.845 0 13.722 11.144 24.846 24.89 24.846Z" fill="#E6E6E6"/><path d="M40.224 65.147c10.464 0 18.946-8.467 18.946-18.913 0-10.445-8.482-18.912-18.946-18.912-10.464 0-18.947 8.467-18.947 18.912 0 10.446 8.483 18.913 18.947 18.913Z" fill="#6C63FF"/><path d="M42.44 54.174c-1.228-.034-2.756-.077-3.934-.936a3.018 3.018 0 0 1-1.189-2.252 2.026 2.026 0 0 1 .691-1.666c.615-.519 1.513-.64 2.481-.356l-1.002-7.315.736-.1 1.178 8.599-.614-.282c-.713-.326-1.691-.492-2.299.02a1.304 1.304 0 0 0-.428 1.074 2.277 2.277 0 0 0 .884 1.68c.917.668 2.135.754 3.517.792l-.02.742ZM35.845 42.28h-4.001v.741h4.001v-.742Zm12.633 0h-4.001v.741h4.001v-.742Z" fill="#2F2E41"/><path opacity=".2" d="M27.475 46.354a18.89 18.89 0 0 1 4.57-12.318 18.96 18.96 0 0 1 11.504-6.378 18.978 18.978 0 0 0-15.327 4.155 18.915 18.915 0 0 0-4.964 6.427 18.882 18.882 0 0 0 4.734 22.36 18.976 18.976 0 0 0 15.258 4.399 18.956 18.956 0 0 1-11.302-6.443 18.894 18.894 0 0 1-4.473-12.202Z" fill="#000"/><path d="M59.171 125.527H21.278a6.143 6.143 0 0 1-4.332-1.794 6.12 6.12 0 0 1-1.798-4.325V76.763a6.12 6.12 0 0 1 1.798-4.325 6.142 6.142 0 0 1 4.332-1.794h5.758v1.668a4.266 4.266 0 0 0 1.253 3.015 4.278 4.278 0 0 0 3.02 1.25H49.14a4.28 4.28 0 0 0 3.02-1.25c.8-.8 1.25-1.884 1.252-3.014v-1.67h5.758a6.142 6.142 0 0 1 4.332 1.795 6.12 6.12 0 0 1 1.798 4.325v42.645a6.12 6.12 0 0 1-1.798 4.325 6.143 6.143 0 0 1-4.332 1.794Z" fill="#E6E6E6"/><path d="M64.255 166.504H49.392v-17.128l-19.412-29.71 12.447-8.103 19.327 29.58a13.405 13.405 0 0 1 2.184 7.107l.317 18.254Z" fill="#E6E6E6"/><path d="M38.063 177.815H23.574v-43.388h14.489v43.388Z" fill="#E6E6E6"/><path d="M56.2 138.506H24.251a3.164 3.164 0 0 1-2.231-.924 3.153 3.153 0 0 1-.926-2.228v-11.866c0-.836.334-1.637.926-2.228a3.165 3.165 0 0 1 2.232-.925H56.2a3.164 3.164 0 0 1 3.158 3.153v11.866c0 .836-.334 1.637-.926 2.228a3.164 3.164 0 0 1-2.232.924Z" fill="#E6E6E6"/><path d="M66.853 173.364H49.578v-11.495h17.275c1.527 0 2.992.605 4.072 1.683a5.743 5.743 0 0 1 0 8.129 5.763 5.763 0 0 1-4.072 1.683Zm-26.004 4.451H23.574v-11.496H40.85c1.527 0 2.992.605 4.072 1.683a5.743 5.743 0 0 1 0 8.129 5.764 5.764 0 0 1-4.072 1.684Z" fill="#CCC"/><path d="M58.307 89.556H44.562a1.302 1.302 0 0 1-1.3-1.298 1.297 1.297 0 0 1 1.3-1.298h13.745a1.301 1.301 0 0 1 1.3 1.298 1.296 1.296 0 0 1-1.3 1.298Zm0 4.636H44.562a1.302 1.302 0 0 1-1.3-1.298 1.297 1.297 0 0 1 1.3-1.298h13.745a1.301 1.301 0 0 1 1.3 1.298 1.296 1.296 0 0 1-1.3 1.298Z" fill="#fff"/><path d="M81.73 178H.37a.37.37 0 1 1 0-.742h81.36a.37.37 0 1 1 0 .742Z" fill="#3F3D56"/><path d="M108.46 74.908c3.694 0 6.687-2.988 6.687-6.675 0-3.686-2.993-6.675-6.687-6.675-3.693 0-6.687 2.989-6.687 6.675 0 3.687 2.994 6.675 6.687 6.675Z" fill="#E6E6E6"/><path d="M110.506 95.119a2.233 2.233 0 0 1-2.229-2.225v-80.1a2.223 2.223 0 0 1 2.229-2.225 2.231 2.231 0 0 1 2.229 2.225v80.1a2.22 2.22 0 0 1-.653 1.572 2.235 2.235 0 0 1-1.576.653Z" fill="#3F3D56"/><path d="M178.178 11.251c-1.957-1.71-8.682-7.03-17.356-8.002-6.49-.724-14.072.986-21.566 8.47-6.01 6-11.679 8.844-16.851 8.458-5.279-.397-8.789-4.142-10.413-6.341a.906.906 0 0 0-1.029-.327.913.913 0 0 0-.643.883v27.686a.935.935 0 0 0 .532.839c2.024.956 9.317 4.134 16.658 4.134 4.305 0 8.633-1.094 11.917-4.375.034-.034.063-.064.097-.093 5.818-5.652 18.642-4.49 28-2.644a109.83 109.83 0 0 1 9.09 2.206 1.675 1.675 0 0 0 1.467-.27 1.66 1.66 0 0 0 .666-1.332V12.508a1.674 1.674 0 0 0-.569-1.257Z" fill="#6C63FF"/><path d="M193.164 90.112a3.34 3.34 0 0 0 3.343-3.337 3.34 3.34 0 0 0-3.343-3.338 3.34 3.34 0 0 0-3.344 3.338 3.34 3.34 0 0 0 3.344 3.337Zm-5.946 36.713a3.34 3.34 0 0 0 3.344-3.338 3.34 3.34 0 0 0-3.344-3.337 3.34 3.34 0 0 0-3.343 3.337 3.34 3.34 0 0 0 3.343 3.338Zm-10.771-22.992a5.567 5.567 0 0 0 5.573-5.562 5.568 5.568 0 0 0-5.573-5.563 5.567 5.567 0 0 0-5.572 5.563 5.567 5.567 0 0 0 5.572 5.562Z" fill="#fff"/></g><defs><clipPath id="a"><path fill="#fff" d="M0 0h237v178H0z"/></clipPath></defs></svg>
